Newaita-dark/apps/22/haguichi.svg

<svg height="22" viewBox="0 0 22 22" width="22" xmlns="http://www.w3.org/2000/svg" xmlns:xlink="http://www.w3.org/1999/xlink"><linearGradient id="a" gradientUnits="userSpaceOnUse" x1="10.9151136" x2="10.9151136" y1="19.27333715" y2="20.18293042919"><stop offset="0" stop-opacity=".27451"/><stop offset="1" stop-opacity="0"/></linearGradient><linearGradient id="b"><stop offset="0" stop-opacity=".313726"/><stop offset=".222222" stop-opacity=".27451"/><stop offset="1" stop-opacity="0"/></linearGradient><radialGradient id="c" cx="450.908936" cy="189.579361" gradientTransform="matrix(.00000012 -.0537161 -.0966889 -.00000007 35.839821 43.721791)" gradientUnits="userSpaceOnUse" r="21.166656" xlink:href="#b"/><radialGradient id="d" cx="450.908936" cy="189.579361" gradientTransform="matrix(-.00000012 .0537161 .0966889 .00000007 -14.009609 -5.175142)" gradientUnits="userSpaceOnUse" r="21.166656" xlink:href="#b"/><radialGradient id="e" cx="450.908936" cy="189.579361" gradientTransform="matrix(-.00000012 -.0537161 .0966889 -.00000007 -14.009609 43.721791)" gradientUnits="userSpaceOnUse" r="21.166656" xlink:href="#b"/><radialGradient id="f" cx="450.908936" cy="189.579361" gradientTransform="matrix(.00000012 .0537161 -.0966889 .00000007 35.839819 -5.175142)" gradientUnits="userSpaceOnUse" r="21.166656" xlink:href="#b"/><linearGradient id="g" gradientUnits="userSpaceOnUse" x1="7.27674417081" x2="7.27674417081" y1="19.27333515" y2="1.99106765838"><stop offset="0" stop-color="#f44336"/><stop offset="1" stop-color="#ef5350"/></linearGradient><linearGradient id="h" gradientUnits="userSpaceOnUse" x1="10.9151166" x2="10.9151166" y1="19.27333515" y2="1.99106765838"><stop offset="0" stop-color="#bdbdbd"/><stop offset="1" stop-color="#e0e0e0"/></linearGradient><path d="m4.09375 19.207031h13.644531v1.007813h-13.644531zm0 0" fill="url(#a)"/><path d="m17.738281 19.273438h1.816407v-.910157h-1.816407zm0 0" fill="url(#c)"/><path d="m4.09375 19.273438h-1.820312v.910156h1.820312zm0 0" fill="url(#d)"/><path d="m4.09375 19.273438h-1.820312v-.910157h1.820312zm0 0" fill="url(#e)"/><path d="m17.738281 19.273438h1.816407v.910156h-1.816407zm0 0" fill="url(#f)"/><path d="m3.183594 1.992188h15.464844c.5 0 .90625.40625.90625.910156v15.460937c0 .503907-.40625.910157-.90625.910157h-15.464844c-.503906 0-.910156-.40625-.910156-.910157v-15.460937c0-.503906.40625-.910156.910156-.910156zm0 0" fill="url(#g)"/><path d="m3.183594 1.992188c-.503906 0-.910156.40625-.910156.910156v.113281c0-.503906.40625-.910156.910156-.910156h15.464844c.503906 0 .90625.40625.90625.910156v-.113281c0-.503906-.402344-.910156-.90625-.910156zm0 0" fill="#e6e6e6" fill-opacity=".392157"/><path d="m3.183594 19.273438c-.503906 0-.910156-.40625-.910156-.910157v-.113281c0 .503906.40625.910156.910156.910156h15.464844c.503906 0 .90625-.40625.90625-.910156v.113281c0 .503907-.402344.910157-.90625.910157zm0 0" fill-opacity=".196078"/><path d="m74.083834-168.640791h359.874725c11.635253 0 21.088895 9.453643 21.088895 21.179796v359.783824c0 11.726153-9.453642 21.179796-21.088895 21.179796h-359.874725c-11.726152 0-21.179795-9.453643-21.179795-21.179796v-359.783824c0-11.726153 9.453643-21.179796 21.179795-21.179796zm0 0" fill="none" stroke="#212121" stroke-linecap="round" stroke-width="3" transform="matrix(.0429729 0 0 .0429729 0 9.239163)"/><path d="m10.914062 4.71875c-.132812 0-.261718.0625-.347656.164062l-4.546875 5.457032c-.140625.171875-.140625.414062 0 .582031l4.546875 5.457031c.085938.105469.214844.164063.347656.164063h2.730469c.382813 0 .59375-.449219.347657-.742188l-3.828126-4.597656-2.089843 1.363281 1.621093-1.925781-.007812-.007813 4.304688-5.167968c.246093-.296875.035156-.746094-.347657-.746094zm0 0" fill="url(#h)"/><path d="m10.914062 4.71875c-.132812 0-.261718.0625-.347656.164062l-4.546875 5.457032c-.089843.109375-.121093.246094-.097656.378906.011719-.074219.046875-.144531.097656-.207031l4.546875-5.457031c.085938-.105469.214844-.164063.347656-.164063h2.730469c.238281 0 .40625.171875.445313.371094.050781-.261719-.144532-.542969-.445313-.542969zm-.75 6.484375-1.773437 1.15625-.316406.375 2.089843-1.363281 3.828126 4.597656c.054687.0625.085937.132812.097656.203125.023437-.125-.003906-.257813-.097656-.371094zm0 0" fill="#fff"/><path d="m14.082031 5.347656c-.015625.0625-.046875.117188-.089843.171875l-4.304688 5.164063.007812.007812-1.621093 1.925782.445312-.289063 1.175781-1.394531-.007812-.007813 4.304688-5.167969c.105468-.125.125-.273437.089843-.410156zm-8.152343 5.457032c-.039063.140624-.007813.292968.089843.410156l4.546875 5.457031c.085938.105469.214844.164063.347656.164063h2.730469c.316407 0 .515625-.304688.4375-.574219-.050781.183593-.214843.335937-.4375.335937h-2.730469c-.132812 0-.261718-.0625-.347656-.164062l-4.546875-5.457032c-.042969-.050781-.074219-.109374-.089843-.171874zm0 0" fill-opacity=".235294"/><path d="m959.908384 415.021234c-11.681061 0-23.018562 5.49697-30.576896 14.429546l-399.904566 479.954192c-12.368183 15.116668-12.368183 36.417426 0 51.190533l399.904566 479.954192c7.558334 9.276137 18.895835 14.429546 30.576896 14.429546h240.148876c33.668941 0 52.221215-39.509472 30.576896-65.276518l-336.689412-404.370855-183.804934 119.902658 142.577659-169.375388-.687121-.687121 378.603808-454.530706c21.644319-26.110607 3.092045-65.620079-30.576896-65.620079zm0 0" fill="none" stroke="#212121" stroke-linecap="round" stroke-linejoin="round" stroke-width="11.338583" transform="scale(.0113699)"/></svg>

<?xml version="1.0" encoding="UTF-8"?>
<svg xmlns="http://www.w3.org/2000/svg" xmlns:xlink="http://www.w3.org/1999/xlink" width="22px" height="22px" viewBox="0 0 22 22" version="1.1">
<defs>
<linearGradient id="linear0" gradientUnits="userSpaceOnUse" x1="254" y1="233.5" x2="254" y2="254.666672" gradientTransform="matrix(0.0429729,0,0,0.0429729,-0.00000262285,9.239165)">
<stop offset="0" style="stop-color:rgb(0%,0%,0%);stop-opacity:0.27451;"/>
<stop offset="1" style="stop-color:rgb(0%,0%,0%);stop-opacity:0;"/>
</linearGradient>
<radialGradient id="radial0" gradientUnits="userSpaceOnUse" cx="450.908936" cy="189.579361" fx="450.908936" fy="189.579361" r="21.166656" gradientTransform="matrix(0.000000119742,-0.0537161,-0.0966889,-0.0000000698078,35.839821,43.721791)">
<stop offset="0" style="stop-color:rgb(0%,0%,0%);stop-opacity:0.313726;"/>
<stop offset="0.222222" style="stop-color:rgb(0%,0%,0%);stop-opacity:0.27451;"/>
<stop offset="1" style="stop-color:rgb(0%,0%,0%);stop-opacity:0;"/>
</radialGradient>
<radialGradient id="radial1" gradientUnits="userSpaceOnUse" cx="450.908936" cy="189.579361" fx="450.908936" fy="189.579361" r="21.166656" gradientTransform="matrix(-0.000000119742,0.0537161,0.0966889,0.0000000698078,-14.009609,-5.175142)">
<stop offset="0" style="stop-color:rgb(0%,0%,0%);stop-opacity:0.313726;"/>
<stop offset="0.222222" style="stop-color:rgb(0%,0%,0%);stop-opacity:0.27451;"/>
<stop offset="1" style="stop-color:rgb(0%,0%,0%);stop-opacity:0;"/>
</radialGradient>
<radialGradient id="radial2" gradientUnits="userSpaceOnUse" cx="450.908936" cy="189.579361" fx="450.908936" fy="189.579361" r="21.166656" gradientTransform="matrix(-0.000000119742,-0.0537161,0.0966889,-0.0000000698078,-14.009609,43.721791)">
<stop offset="0" style="stop-color:rgb(0%,0%,0%);stop-opacity:0.313726;"/>
<stop offset="0.222222" style="stop-color:rgb(0%,0%,0%);stop-opacity:0.27451;"/>
<stop offset="1" style="stop-color:rgb(0%,0%,0%);stop-opacity:0;"/>
</radialGradient>
<radialGradient id="radial3" gradientUnits="userSpaceOnUse" cx="450.908936" cy="189.579361" fx="450.908936" fy="189.579361" r="21.166656" gradientTransform="matrix(0.000000119742,0.0537161,-0.0966889,0.0000000698078,35.839819,-5.175142)">
<stop offset="0" style="stop-color:rgb(0%,0%,0%);stop-opacity:0.313726;"/>
<stop offset="0.222222" style="stop-color:rgb(0%,0%,0%);stop-opacity:0.27451;"/>
<stop offset="1" style="stop-color:rgb(0%,0%,0%);stop-opacity:0;"/>
</radialGradient>
<linearGradient id="linear1" gradientUnits="userSpaceOnUse" x1="169.333328" y1="233.5" x2="169.333328" y2="-168.666656" gradientTransform="matrix(0.0429729,0,0,0.0429729,0,9.239163)">
<stop offset="0" style="stop-color:rgb(95.686275%,26.274511%,21.176471%);stop-opacity:1;"/>
<stop offset="1" style="stop-color:rgb(93.725491%,32.549021%,31.37255%);stop-opacity:1;"/>
</linearGradient>
<linearGradient id="linear2" gradientUnits="userSpaceOnUse" x1="254" y1="233.5" x2="254" y2="-168.666656" gradientTransform="matrix(0.0429729,0,0,0.0429729,0,9.239163)">
<stop offset="0" style="stop-color:rgb(74.117649%,74.117649%,74.117649%);stop-opacity:1;"/>
<stop offset="1" style="stop-color:rgb(87.843138%,87.843138%,87.843138%);stop-opacity:1;"/>
</linearGradient>
</defs>
<g id="surface1">
<path style=" stroke:none;fill-rule:nonzero;fill:url(#linear0);" d="M 4.09375 19.207031 L 17.738281 19.207031 L 17.738281 20.214844 L 4.09375 20.214844 Z M 4.09375 19.207031 "/>
<path style=" stroke:none;fill-rule:nonzero;fill:url(#radial0);" d="M 17.738281 19.273438 L 19.554688 19.273438 L 19.554688 18.363281 L 17.738281 18.363281 Z M 17.738281 19.273438 "/>
<path style=" stroke:none;fill-rule:nonzero;fill:url(#radial1);" d="M 4.09375 19.273438 L 2.273438 19.273438 L 2.273438 20.183594 L 4.09375 20.183594 Z M 4.09375 19.273438 "/>
<path style=" stroke:none;fill-rule:nonzero;fill:url(#radial2);" d="M 4.09375 19.273438 L 2.273438 19.273438 L 2.273438 18.363281 L 4.09375 18.363281 Z M 4.09375 19.273438 "/>
<path style=" stroke:none;fill-rule:nonzero;fill:url(#radial3);" d="M 17.738281 19.273438 L 19.554688 19.273438 L 19.554688 20.183594 L 17.738281 20.183594 Z M 17.738281 19.273438 "/>
<path style=" stroke:none;fill-rule:nonzero;fill:url(#linear1);" d="M 3.183594 1.992188 L 18.648438 1.992188 C 19.148438 1.992188 19.554688 2.398438 19.554688 2.902344 L 19.554688 18.363281 C 19.554688 18.867188 19.148438 19.273438 18.648438 19.273438 L 3.183594 19.273438 C 2.679688 19.273438 2.273438 18.867188 2.273438 18.363281 L 2.273438 2.902344 C 2.273438 2.398438 2.679688 1.992188 3.183594 1.992188 Z M 3.183594 1.992188 "/>
<path style=" stroke:none;fill-rule:nonzero;fill:rgb(90.196079%,90.196079%,90.196079%);fill-opacity:0.392157;" d="M 3.183594 1.992188 C 2.679688 1.992188 2.273438 2.398438 2.273438 2.902344 L 2.273438 3.015625 C 2.273438 2.511719 2.679688 2.105469 3.183594 2.105469 L 18.648438 2.105469 C 19.152344 2.105469 19.554688 2.511719 19.554688 3.015625 L 19.554688 2.902344 C 19.554688 2.398438 19.152344 1.992188 18.648438 1.992188 Z M 3.183594 1.992188 "/>
<path style=" stroke:none;fill-rule:nonzero;fill:rgb(0%,0%,0%);fill-opacity:0.196078;" d="M 3.183594 19.273438 C 2.679688 19.273438 2.273438 18.867188 2.273438 18.363281 L 2.273438 18.25 C 2.273438 18.753906 2.679688 19.160156 3.183594 19.160156 L 18.648438 19.160156 C 19.152344 19.160156 19.554688 18.753906 19.554688 18.25 L 19.554688 18.363281 C 19.554688 18.867188 19.152344 19.273438 18.648438 19.273438 Z M 3.183594 19.273438 "/>
<path style="fill:none;stroke-width:3;stroke-linecap:round;stroke-linejoin:miter;stroke:rgb(12.941177%,12.941177%,12.941177%);stroke-opacity:1;stroke-miterlimit:4;" d="M 74.083834 -168.640791 L 433.958559 -168.640791 C 445.593812 -168.640791 455.047454 -159.187148 455.047454 -147.460995 L 455.047454 212.322829 C 455.047454 224.048982 445.593812 233.502625 433.958559 233.502625 L 74.083834 233.502625 C 62.357682 233.502625 52.904039 224.048982 52.904039 212.322829 L 52.904039 -147.460995 C 52.904039 -159.187148 62.357682 -168.640791 74.083834 -168.640791 Z M 74.083834 -168.640791 " transform="matrix(0.0429729,0,0,0.0429729,0,9.239163)"/>
<path style=" stroke:none;fill-rule:nonzero;fill:url(#linear2);" d="M 10.914062 4.71875 C 10.78125 4.71875 10.652344 4.78125 10.566406 4.882812 L 6.019531 10.339844 C 5.878906 10.511719 5.878906 10.753906 6.019531 10.921875 L 10.566406 16.378906 C 10.652344 16.484375 10.78125 16.542969 10.914062 16.542969 L 13.644531 16.542969 C 14.027344 16.542969 14.238281 16.09375 13.992188 15.800781 L 10.164062 11.203125 L 8.074219 12.566406 L 9.695312 10.640625 L 9.6875 10.632812 L 13.992188 5.464844 C 14.238281 5.167969 14.027344 4.71875 13.644531 4.71875 Z M 10.914062 4.71875 "/>
<path style=" stroke:none;fill-rule:nonzero;fill:rgb(100%,100%,100%);fill-opacity:1;" d="M 10.914062 4.71875 C 10.78125 4.71875 10.652344 4.78125 10.566406 4.882812 L 6.019531 10.339844 C 5.929688 10.449219 5.898438 10.585938 5.921875 10.71875 C 5.933594 10.644531 5.96875 10.574219 6.019531 10.511719 L 10.566406 5.054688 C 10.652344 4.949219 10.78125 4.890625 10.914062 4.890625 L 13.644531 4.890625 C 13.882812 4.890625 14.050781 5.0625 14.089844 5.261719 C 14.140625 5 13.945312 4.71875 13.644531 4.71875 Z M 10.164062 11.203125 L 8.390625 12.359375 L 8.074219 12.734375 L 10.164062 11.371094 L 13.992188 15.96875 C 14.046875 16.03125 14.078125 16.101562 14.089844 16.171875 C 14.113281 16.046875 14.085938 15.914062 13.992188 15.800781 Z M 10.164062 11.203125 "/>
<path style=" stroke:none;fill-rule:nonzero;fill:rgb(0%,0%,0%);fill-opacity:0.235294;" d="M 14.082031 5.347656 C 14.066406 5.410156 14.035156 5.464844 13.992188 5.519531 L 9.6875 10.683594 L 9.695312 10.691406 L 8.074219 12.617188 L 8.519531 12.328125 L 9.695312 10.933594 L 9.6875 10.925781 L 13.992188 5.757812 C 14.097656 5.632812 14.117188 5.484375 14.082031 5.347656 Z M 5.929688 10.804688 C 5.890625 10.945312 5.921875 11.097656 6.019531 11.214844 L 10.566406 16.671875 C 10.652344 16.777344 10.78125 16.835938 10.914062 16.835938 L 13.644531 16.835938 C 13.960938 16.835938 14.160156 16.53125 14.082031 16.261719 C 14.03125 16.445312 13.867188 16.597656 13.644531 16.597656 L 10.914062 16.597656 C 10.78125 16.597656 10.652344 16.535156 10.566406 16.433594 L 6.019531 10.976562 C 5.976562 10.925781 5.945312 10.867188 5.929688 10.804688 Z M 5.929688 10.804688 "/>
<path style="fill:none;stroke-width:11.338583;stroke-linecap:round;stroke-linejoin:round;stroke:rgb(12.941177%,12.941177%,12.941177%);stroke-opacity:1;stroke-miterlimit:4;" d="M 959.908384 415.021234 C 948.227323 415.021234 936.889822 420.518204 929.331488 429.45078 L 529.426922 909.404972 C 517.058739 924.52164 517.058739 945.822398 529.426922 960.595505 L 929.331488 1440.549697 C 936.889822 1449.825834 948.227323 1454.979243 959.908384 1454.979243 L 1200.05726 1454.979243 C 1233.726201 1454.979243 1252.278475 1415.469771 1230.634156 1389.702725 L 893.944744 985.33187 L 710.13981 1105.234528 L 852.717469 935.85914 L 852.030348 935.172019 L 1230.634156 480.641313 C 1252.278475 454.530706 1233.726201 415.021234 1200.05726 415.021234 Z M 959.908384 415.021234 " transform="matrix(0.0113699,0,0,0.0113699,0,0)"/>
</g>
</svg>
